X:645
T: ACH WENN DOCH MEIN SCHAETZCHEN EIN ROSENSTOCK WAER
N: E0593
O: Europa, Mitteleuropa, Deutschland, Hessen, Odenwald
R: Liebes - Lied
M: 3/8
L: 1/16
K: A
E2 | A3Bc2 | B3cd2 | e2e2d2 | c4
ef | e2c2ef | cdB2
E2 | A3Bc2 | B3cd2 | e2e2d2 | c4
dd | e2c2B2 | A4

